icon-themes/breeze_svg/cmd/sc_extrusiontiltup.svg

<svg viewBox="0 0 16 16" xmlns="http://www.w3.org/2000/svg"><path d="m10.5 2-.21875.1835938-3.28125 3.2519531.71875.6757812 2.28125-2.2402343v2.2402343.8886719h1v-.8886719-2.2402343l2.28125 2.2402343.71875-.6757812-3.28125-3.2519531zm0 7c-.276142 0-.5.2238576-.5.5s.223858.5.5.5.5-.2238576.5-.5-.223858-.5-.5-.5zm-8 1c-.276142 0-.5.223858-.5.5s.223858.5.5.5.5-.223858.5-.5-.223858-.5-.5-.5zm7 1c-.2761424 0-.5.223858-.5.5s.2238576.5.5.5.5-.223858.5-.5-.2238576-.5-.5-.5zm-6 1c-.276142 0-.5.223858-.5.5s.223858.5.5.5.5-.223858.5-.5-.223858-.5-.5-.5zm2 1c-.276142 0-.5.223858-.5.5s.223858.5.5.5.5-.223858.5-.5-.223858-.5-.5-.5zm2 0c-.2761424 0-.5.223858-.5.5s.2238576.5.5.5.5-.223858.5-.5-.2238576-.5-.5-.5z" fill="#4d4d4d"/><path d="m2 9v1h12v-1z" fill="#1d99f3"/></svg>

<svg xmlns="http://www.w3.org/2000/svg" viewBox="0 0 16 16">
 <path 
     style="fill:#4d4d4d" 
     d="M 10.5 2 L 10.28125 2.1835938 L 7 5.4355469 L 7.71875 6.1113281 L 10 3.8710938 L 10 6.1113281 L 10 7 L 11 7 L 11 6.1113281 L 11 3.8710938 L 13.28125 6.1113281 L 14 5.4355469 L 10.71875 2.1835938 L 10.5 2 z M 10.5 9 C 10.223858 9 10 9.2238576 10 9.5 C 10 9.7761424 10.223858 10 10.5 10 C 10.776142 10 11 9.7761424 11 9.5 C 11 9.2238576 10.776142 9 10.5 9 z M 2.5 10 C 2.223858 10 2 10.223858 2 10.5 C 2 10.776142 2.223858 11 2.5 11 C 2.776142 11 3 10.776142 3 10.5 C 3 10.223858 2.776142 10 2.5 10 z M 9.5 11 C 9.2238576 11 9 11.223858 9 11.5 C 9 11.776142 9.2238576 12 9.5 12 C 9.7761424 12 10 11.776142 10 11.5 C 10 11.223858 9.7761424 11 9.5 11 z M 3.5 12 C 3.223858 12 3 12.223858 3 12.5 C 3 12.776142 3.223858 13 3.5 13 C 3.776142 13 4 12.776142 4 12.5 C 4 12.223858 3.776142 12 3.5 12 z M 5.5 13 C 5.223858 13 5 13.223858 5 13.5 C 5 13.776142 5.223858 14 5.5 14 C 5.776142 14 6 13.776142 6 13.5 C 6 13.223858 5.776142 13 5.5 13 z M 7.5 13 C 7.2238576 13 7 13.223858 7 13.5 C 7 13.776142 7.2238576 14 7.5 14 C 7.7761424 14 8 13.776142 8 13.5 C 8 13.223858 7.7761424 13 7.5 13 z "
     />
 <path 
     style="fill:#1d99f3" 
     d="M 2 9 L 2 10 L 14 10 L 14 9 L 2 9 z "
     />
 </svg>
